Adwaita++-Dark/actions/22/office-chart-area.svg

<svg height="22" viewBox="0 0 22 22" width="22" xmlns="http://www.w3.org/2000/svg">
  <g fill="#e6ddff" transform="translate(3 3)">
    <path d="m2 2v1.5273438h-.9960938v.0078124h.9960938v4.4648438 1 2h-1v.007812h1v2.992188h12v-.998047-.001953-1.132812l-.041016-.039063-2.828125-2.828125-.003906.0039062-.005859-.0039062-2.1230471 2.123047-3.1230469-3.123047h-1.4140625-1.4609375v-4.4648438h4.4648438l-2.4667969 2.4667969h-1.9960938v1h2.4101563l3.5898437-3.5898437 2.1230469 2.1230468.005859-.0039062.003907.0039062 2.828125-2.828125c.003.005-.707032-.7070312-.707032-.7070312l-2.125 2.125-2.1269528-2.125-.0019531.0019531-.0019531-.0019531-1.5273438 1.5273438h-4.4726562v-1.5273438zm1 7h2.4609375l2 2h-4.4609375zm8.126953 1.410156 2.125 2.125.482422.464844h-10.734375v-1.992188h4.46875l1.5273438 1.527344.0019531-.001953.0019531.001953z"/>
    <path d="m13.46 2.22-2.451 2.779-2-3-4 4h-2v7h11v-10.258z" opacity=".5"/>
  </g>
</svg>

<svg xmlns="http://www.w3.org/2000/svg" width="22" height="22" viewBox="0 0 22 22">
 <defs>
  <style id="current-color-scheme" type="text/css">
   .ColorScheme-Text { color:#E6DDFF; } .ColorScheme-Highlight { color:#4285f4; }
  </style>
 </defs>
 <path style="fill:currentColor" class="ColorScheme-Text" d="M 2 2 L 2 3.5273438 L 1.0039062 3.5273438 L 1.0039062 3.5351562 L 2 3.5351562 L 2 8 L 2 9 L 2 11 L 1 11 L 1 11.007812 L 2 11.007812 L 2 14 L 14 14 L 14 13.001953 L 14 13 L 14 11.867188 L 13.958984 11.828125 L 11.130859 9 L 11.126953 9.0039062 L 11.121094 9 L 8.9980469 11.123047 L 5.875 8 L 4.4609375 8 L 3 8 L 3 3.5351562 L 7.4648438 3.5351562 L 4.9980469 6.0019531 L 3.0019531 6.0019531 L 3.0019531 7.0019531 L 5.4121094 7.0019531 L 9.0019531 3.4121094 L 11.125 5.5351562 L 11.130859 5.53125 L 11.134766 5.5351562 L 13.962891 2.7070312 C 13.965891 2.7120312 13.255859 2 13.255859 2 L 11.130859 4.125 L 9.0039062 2 L 9.0019531 2.0019531 L 9 2 L 7.4726562 3.5273438 L 3 3.5273438 L 3 2 L 2 2 z M 3 9 L 5.4609375 9 L 7.4609375 11 L 3 11 L 3 9 z M 11.126953 10.410156 L 13.251953 12.535156 L 13.734375 13 L 3 13 L 3 11.007812 L 7.46875 11.007812 L 8.9960938 12.535156 L 8.9980469 12.533203 L 9 12.535156 L 11.126953 10.410156 z" transform="translate(3 3)"/>
 <path style="fill:currentColor;opacity:0.5" class="ColorScheme-Text" d="m 13.46,2.22 -2.451,2.779 -2,-3 -4,4 -2,0 0,7 11,0 0,-10.258 z" transform="translate(3 3)"/>
</svg>
